X: 100092
M: C|
L: 1/8
K: Bb
(uDC) |\
|: (ufga) |\
bfdB FDFB | bfdB FDFB | GBed cBAB | (3cdB (3ABG F2 ((3fga) |
bfdB FDFB | bfdB FDFB | dBGF EeAc | c2B2 B2 :|


